X:1
T:Gude Wallace
M:6/8
L:1/8
K:F
 G| DGG AGF|G-D G A2 G|G-D GF-G A|D-G G A2 G|B-d-Bc-A F| Bdc A2 G|\
B-d BB-A F|G-D G G2||
